X: 68
T: No_30_I_Will_Get_a_Buck.krn
N: Derived from No_30_I_Will_Get_a_Buck.krn
%%abc-version 2.0
%%abcx-abcm2ps-target-version 5.9.1 (29 Sep 2008)
%%abc-creator hum2abc beta
%%abcx-conversion-date 2019/03/15 08:35:44
%%humdrum-veritas 3267554973
%%humdrum-veritas-data 1901798036
%%linebreak <none>
%%barnumbers 0
L: 1/8
M: 2/4
K: C clef=bass
[K:clef=bass][M:2/4]z2G,G, ]|:  
D2D2- | 
D2CA, | 
C2G,2 | 
G,G, G,G, | 
G,2G,2 | 
G,G, G, z | 
CC B,A, | 
CC DC ||  
[M:3/4]G,2G,G, G,G, ||  
[M:2/4]G,2G,2 | 
G,G, G,G, | 
G, z G,G, :|]  
G,2z2 |]  



